X:14
T:Reel de l'Outaouais
C:Jean-Francois Beaulieu
Z:robin.beech@mcgill.ca
R:reel
M:2/4
L:1/16
K:D
d2fd adce | dfec dAFA | B2dB fBdB | fafd BdAF |
G2BG dGFA | GABA d2Bd | efga b2fe |1 fdec d2FA :|2 fdeA d2gf |:
eBGB e2GB | eBGB f2e^c | dAFA D2FA | dAFA e2gf |
eBGB E2GB | eBGB f2ef | afga f2Bd |1 fgaf g2gf :|2 fgaf g2GA |:
B3c dfBA | BfBA B2dc | d3e fadc | dadc d2dc | 
B3c dfBA | BfBA Bcdf | edBd e2cB |1 Adec d2dc :|2 Adec dz3|:
BGdG BGdB | fgAB G3BA | GEBE GEBG | deFG E2Ad |
fdad fdad | ^cdef d2FG | A3d fedB |1 ADFA G2EF :|2 ADFA gz3 :|

